examples/demo-composable-pfp/assets/accessory/winterhat.svg

<?xml version="1.0" encoding="UTF-8"?>
<svg width="266px" height="280px" viewBox="0 0 266 280" version="1.1" xmlns="http://www.w3.org/2000/svg" xmlns:xlink="http://www.w3.org/1999/xlink">
    <!-- Generator: Sketch 58 (84663) - https://sketch.com -->
    <title>Top/Accessories/Winter Hat 1</title>
    <desc>Created with Sketch.</desc>
    <defs>
        <path d="M96,0 C120.300529,-7.10542736e-15 140,19.699471 140,44 L140,54 L140,155 C140,160.522847 135.522847,165 130,165 C124.477153,165 120,160.522847 120,155 L120,54 L20,54 L20,155 C20,160.522847 15.5228475,165 10,165 C4.4771525,165 0,160.522847 0,155 L0,44 C0,19.699471 19.699471,0 44,0 L96,0 Z" id="path-1"></path>
        <rect id="path-3" x="74" y="50" width="118" height="36" rx="8"></rect>
        <filter x="-0.8%" y="-2.8%" width="101.7%" height="111.1%" filterUnits="objectBoundingBox" id="filter-4">
            <feOffset dx="0" dy="2" in="SourceAlpha" result="shadowOffsetOuter1"></feOffset>
            <feColorMatrix values="0 0 0 0 0   0 0 0 0 0   0 0 0 0 0  0 0 0 0.1 0" type="matrix" in="shadowOffsetOuter1"></feColorMatrix>
        </filter>
    </defs>
    <g id="Top/Accessories/Winter-Hat-1" stroke="none" stroke-width="1" fill="none" fill-rule="evenodd">
        <g id="hat" transform="translate(63.000000, 20.000000)">
            <path d="M23.6714286,48 L23.6714286,153.664286 C23.6714286,159.924828 18.5962564,165 12.3357143,165 C6.07517216,165 1,159.924828 1,153.664286 L1,48 L23.6714286,48 Z M139,48 L139,153.664286 C139,159.924828 133.924828,165 127.664286,165 C121.403744,165 116.328571,159.924828 116.328571,153.664286 L116.328571,48 L139,48 Z" id="inside" fill="#F4F4F4"></path>
            <mask id="mask-2" fill="white">
                <use xlink:href="#path-1"></use>
            </mask>
            <use id="hat-mask" fill="#D8D8D8" xlink:href="#path-1"></use>
            <g id="Color/Palette/Red" mask="url(#mask-2)" fill="#FF5C5C">
                <g transform="translate(-4.000000, -1.000000)" id="🖍Color">
                    <rect x="0" y="0" width="149" height="172"></rect>
                </g>
            </g>
        </g>
        <g id="hat-front">
            <use fill="black" fill-opacity="1" filter="url(#filter-4)" xlink:href="#path-3"></use>
            <use fill="#F4F4F4" fill-rule="evenodd" xlink:href="#path-3"></use>
        </g>
        <g id="Facial-Hair/-Blank" transform="translate(49.000000, 72.000000)"></g>
        <g id="Top/_Resources/Blank" transform="translate(62.000000, 85.000000)"></g>
    </g>
</svg>

<svg xmlns="http://www.w3.org/2000/svg" xmlns:xlink="http://www.w3.org/1999/xlink" width="266" height="280"><defs><filter id="60cdde34__c" width="101.7%" height="111.1%" x="-.8%" y="-2.8%" filterUnits="objectBoundingBox"><feOffset dy="2" in="SourceAlpha" result="shadowOffsetOuter1"/><feColorMatrix in="shadowOffsetOuter1" values="0 0 0 0 0 0 0 0 0 0 0 0 0 0 0 0 0 0 0.1 0"/></filter><rect id="fcebd6b9__d" width="118" height="36" x="74" y="50" rx="8"/><path id="5e71ce53__a" d="M96 0c24.3 0 44 19.7 44 44v111c0 5.523-4.477 10-10 10s-10-4.477-10-10V54H20v101c0 5.523-4.477 10-10 10s-10-4.477-10-10V44C0 19.7 19.7 0 44 0z"/></defs><g fill="none" fill-rule="evenodd"><g transform="translate(63 20)"><path fill="#F4F4F4" d="M23.671 48v105.664c0 6.26-5.075 11.336-11.335 11.336S1 159.925 1 153.664V48zM139 48v105.664c0 6.26-5.075 11.336-11.336 11.336-6.26 0-11.335-5.075-11.335-11.336V48z"/><mask id="7684d408__b" fill="#fff"><use xlink:href="#5e71ce53__a"/></mask><use xlink:href="#5e71ce53__a" fill="#D8D8D8"/><g fill="#FF5C5C" mask="url(#7684d408__b)"><path d="M-4-1h149v172H-4z"/></g></g><use xlink:href="#fcebd6b9__d" fill="#000" filter="url(#60cdde34__c)"/><use xlink:href="#fcebd6b9__d" fill="#F4F4F4"/></g></svg>
